app/images/dest/icons/whatsup.svg

<svg width="57" height="57" viewBox="0 0 57 57" fill="none" xmlns="http://www.w3.org/2000/svg">
<rect x="1" y="1" width="55" height="55" rx="14" fill="white"/>
<g filter="url(#filter0_i_47_493)">
<path fill-rule="evenodd" clip-rule="evenodd" d="M28.4943 9C17.7443 9 9 17.7468 9 28.4998C9 32.7644 10.3753 36.7193 12.7131 39.9294L10.2834 47.1743L17.7786 44.7789C20.8614 46.8194 24.5402 48 28.5057 48C39.2557 48 48 39.2529 48 28.5002C48 17.7471 39.2557 9.00032 28.5057 9.00032L28.4943 9ZM23.0504 18.905C22.6723 17.9995 22.3858 17.9652 21.8129 17.9419C21.6179 17.9306 21.4005 17.9193 21.1596 17.9193C20.4144 17.9193 19.6352 18.137 19.1652 18.6184C18.5924 19.203 17.1712 20.5671 17.1712 23.3643C17.1712 26.1616 19.2112 28.867 19.4861 29.2456C19.7727 29.6235 23.4631 35.4471 29.1933 37.8206C33.6743 39.6777 35.004 39.5056 36.0238 39.2878C37.5136 38.9669 39.3818 37.8659 39.8518 36.5365C40.3218 35.2064 40.3217 34.0715 40.184 33.8307C40.0465 33.59 39.6681 33.4529 39.0952 33.1659C38.5224 32.8792 35.7372 31.5035 35.21 31.3201C34.6941 31.1253 34.2015 31.1942 33.8121 31.7446C33.2619 32.5126 32.7234 33.2924 32.2877 33.7622C31.9439 34.129 31.382 34.175 30.9124 33.9799C30.282 33.7165 28.5173 33.097 26.3396 31.1596C24.6547 29.6581 23.5088 27.7897 23.1766 27.228C22.8441 26.655 23.1423 26.3221 23.4056 26.0128C23.6921 25.6572 23.9671 25.4052 24.2537 25.0726C24.5402 24.7403 24.7007 24.5682 24.8841 24.1784C25.0791 23.8001 24.9413 23.4103 24.8038 23.1236C24.6664 22.837 23.5204 20.0397 23.0504 18.905Z" fill="#67C15E"/>
</g>
<rect x="1" y="1" width="55" height="55" rx="14" stroke="black" stroke-width="2"/>
<defs>
<filter id="filter0_i_47_493" x="8" y="9" width="40" height="41" filterUnits="userSpaceOnUse" color-interpolation-filters="sRGB">
<feFlood flood-opacity="0" result="BackgroundImageFix"/>
<feBlend mode="normal" in="SourceGraphic" in2="BackgroundImageFix" result="shape"/>
<feColorMatrix in="SourceAlpha" type="matrix" values="0 0 0 0 0 0 0 0 0 0 0 0 0 0 0 0 0 0 127 0" result="hardAlpha"/>
<feOffset dx="-1" dy="2"/>
<feGaussianBlur stdDeviation="1"/>
<feComposite in2="hardAlpha" operator="arithmetic" k2="-1" k3="1"/>
<feColorMatrix type="matrix" values="0 0 0 0 0 0 0 0 0 0 0 0 0 0 0 0 0 0 0.25 0"/>
<feBlend mode="normal" in2="shape" result="effect1_innerShadow_47_493"/>
</filter>
</defs>
</svg>

<svg xmlns="http://www.w3.org/2000/svg" width="57" height="57" fill="none"><rect width="55" height="55" x="1" y="1" fill="#fff" rx="14"/><g filter="url(#a)"><path fill="#67C15E" fill-rule="evenodd" d="M28.494 9C17.744 9 9 17.747 9 28.5c0 4.264 1.375 8.22 3.713 11.43l-2.43 7.244 7.496-2.395A19.345 19.345 0 0 0 28.506 48C39.256 48 48 39.253 48 28.5S39.256 9 28.506 9h-.012Zm-5.444 9.905c-.378-.905-.664-.94-1.237-.963a11.031 11.031 0 0 0-.653-.023c-.746 0-1.525.218-1.995.7-.573.584-1.994 1.948-1.994 4.745 0 2.798 2.04 5.503 2.315 5.882.287.378 3.977 6.201 9.707 8.575 4.481 1.857 5.811 1.685 6.83 1.467 1.49-.321 3.359-1.422 3.829-2.752.47-1.33.47-2.465.332-2.705-.137-.241-.516-.378-1.089-.665-.573-.287-3.358-1.662-3.885-1.846-.516-.195-1.008-.126-1.398.425-.55.768-1.089 1.547-1.524 2.017-.344.367-.906.413-1.376.218-.63-.263-2.395-.883-4.572-2.82-1.685-1.502-2.831-3.37-3.163-3.932-.333-.573-.035-.906.229-1.215.286-.356.561-.608.848-.94.286-.333.447-.505.63-.895.195-.378.057-.768-.08-1.054-.138-.287-1.284-3.084-1.754-4.219Z" clip-rule="evenodd"/></g><rect width="55" height="55" x="1" y="1" stroke="#000" stroke-width="2" rx="14"/><defs><filter id="a" width="40" height="41" x="8" y="9" color-interpolation-filters="sRGB" filterUnits="userSpaceOnUse"><feFlood flood-opacity="0" result="BackgroundImageFix"/><feBlend in="SourceGraphic" in2="BackgroundImageFix" result="shape"/><feColorMatrix in="SourceAlpha" result="hardAlpha" values="0 0 0 0 0 0 0 0 0 0 0 0 0 0 0 0 0 0 127 0"/><feOffset dx="-1" dy="2"/><feGaussianBlur stdDeviation="1"/><feComposite in2="hardAlpha" k2="-1" k3="1" operator="arithmetic"/><feColorMatrix values="0 0 0 0 0 0 0 0 0 0 0 0 0 0 0 0 0 0 0.25 0"/><feBlend in2="shape" result="effect1_innerShadow_47_493"/></filter></defs></svg>
